X:2061
T:Colbagh breck 
C:Mrs Lawson, Jurby East
O:Isle of Man
S:.Traditional
Z:Clague Collection
B:Kiaull Vannin #61
N:See also KV 228 and 327.
M:6/8
L:1/8 
Q:180 
K:D 
eee e2B|B2A G2A|B2c dBc|d3 d2B|B2e B2A|G2A B2e|B2e e2d|e3-e2z|
"Chorus"
eee e2B|B2A G2A|B2c dBc|d3-d2B|B2e e2B|G2A B2e|B2e e2d|e3-e2z||

